X:1
T:Khvalitye imya Gospodie
T:Греческаго роспева Всенощное бдение,  Opus 50, No. 1
T:П. И. Чаиковский, 1883
T:Предначинательный Псалом
T:From Russian Orthodox Liturgy
T:Public Domain
T:Public Domain
T:Public Domain
T:Public Domain
T:Public Domain
T:Public Domain
C:Sergei Rakhmanninov
Z:Public Domain
%%score [ 1 2 3 4 ]
L:1/8
Q:1/4=108
M:3/4
K:G
V:1 treble nm="Дискант" snm="Д"
V:2 treble nm="Альт" snm="A."
V:3 treble-8 nm="Тенор" snm="Т"
V:4 bass nm="Бас" snm="Б"
V:1
!p!"^Не скоро\nNot fast" G2 G2 A2 |[M:2/4] B2 B2 |[M:3/4] cB A2 GA |[M:4/4] (B3 c d2 c2 | %4
 B3 G A2) A2 | G4 z G G G |[M:3/2] (B3 c d4)!<(! c2 B2!<)! |[M:4/4] (c2!>(! d2 e2) dc!>)! | %8
 B4 z!p! G G G | (A3 B A2 BA | G4) (G2 A2) |[M:3/2] (B4 c2) B2 c4 |[M:4/4] (B3 c d2 c2 | %13
 B3 G A2) A2 |[M:2/4] G4 |[M:3/4]!mf! e2 d2 cB | d2 c2 B2 |[M:4/4] B2 c2 B3 A | (G3 A Bc) d2 | %19
 (e4 d2 c2 | B3 G A2) A2 | G4 z!p! G G G | (c3 B c4 | B3 c A2 GF | G3 A) B2 c2 | (B3 G A2) A2 | %26
 G4 z G G G | (A3 B) A2 BA | G2 G2 G2 A2 | (B4 c2) B2 |[M:3/4] c4 B2 |[M:4/4] (B3 c d2 c2 | %32
 B3 G A2) G F | G4 z G G G | (c3 B c4 | B3 c A2 GF | G3 A) B2 c2 | (B3 G A2) A2 | G4 G2 B2 | %39
 (A3 B A2 BA | G4) (G2 A2 |[M:3/2] B4 c2 B2) c4 |[M:4/4] (B3 c d2 c2 | B2 G2 A2 GF) | G6 z2 || %45
 (c3 B c4) | B2 Bc (A2 GF | G3 A) B2 c2 | (B3 G A2) A2 | G4 G2 G2 | (A3 B A3 B) | G4 (G2 A2 | %52
[M:3/2] B4 c2 B2) c4 |[M:4/4] (B3 c d2 c2 | B3 G A2 GF) | G6 z2 || (c3 B c4) | B2 Bc (A2 GF | %58
 G3 A) B2 c2 | (B3 G A2) A2 | G4 G2 G2 | (A3 B) A2 B2 | G4 G2 A2 | (B4 c2) B2 | c4 G2 G2 | %65
 (B3 c d2 c2 | B3 G A2) A2 | G6 z2 || (c3 B c4) | B2 Bc (A2 GF | G3 A B2 c2 | B3 G A2) A2 | %72
 G4 G2 G2 | (c3 B c4) | B2 Bc A2 GF | (G3 A B2 c2 | B3 G) A2 A2 | G8 ||[M:3/4] G2 G2 G2 | %79
[M:4/4] (A3 B A2 BA | G4) (G2 A2) | (B4 c2 B2) | c4 G2 G2 | (B3 c d2 c2 | B2) BG (A2 GF) | G6 z2 || %86
 (c3 B c4) | B2 cB (A2 GF | G3 A B2 c2 | B3 G A2) A2 | G4 G2 G2 | (c3 B c4) | B2 cB A2 GF | %93
 (G3 A B2 c2 | B3 G) A2 A2 | G6 z2 || G2 G2 G2 G2 | (A3 B A2 BA) | G4 (G2 A2) | (B4 c2 B2) | %100
 c4 B2 B2 | (B3 c d2 c2) | B2 BG A2 A2 | G6 z2 | (c3 B c4) | B2 Bc (A2 GF | G3 A B2 c2 | %107
 B3 G A2) A2 | G4 G2 G2 | (c3 B c4) | B2 Bc A2 GF | (G3 A B2 c2 | B3 G) A2 GF | !fermata!G8 |] %114
V:2
!p!"_Бла-го-сло  –   ви   ду      –     ше      мо  –   я                Гос        –          –         –          –      по  –   да.         Бла–го–сло–""_Bla–go–slo   –   vi    du       –    she     mo  –  ya               Gos       –          –         –          –       po  –   da.         Bla– go–slo –" D2 D2 F2 | %1
[M:2/4] G2 GF |[M:3/4] E2 EF G2 |[M:4/4] (F2 G2- G2 A2 | G4 E2) F2 | D4 z D D D | %6
[M:3/2]"_–вен _____     е – си          Гос       –       по   –   ди.      Бла–го–сло –ви ___________________             ду          –        ше      мо–я""_–vyen ____     ye– si          Gos       –       po   –   di.       Bla–go– slo –  vi  ___________________             du          –        she    mo–ya" (G2 FG- G4)!<(! G2 G2!<)! | %7
[M:4/4] (A4!>(! AG) F2!>)! | G4 z!p! D D D | (D6 F2 | D4) (E2 F2) |[M:3/2] (G4 A2) G2 G4 | %12
[M:4/4]"_Гос        –          –         –        по     –      да.         Гос – по–ди,      Бо  –  же     мой,         воз-ве-ли– чил –  ся ____________      е –""_Gos       –          –         –         po     –     da.         Gos – po– di,      Bo  –  zhe    moi,          voz-vye-li – chil – sya ___________     ye –" (F2 G2- G2 A2 | %13
 G4 E2) F2 |[M:2/4] D4 |[M:3/4]!mf! E2 F2 G2 | F2 EF GA |[M:4/4] B2 A2 GF E2 | (EF E2 G2) G2 | %19
"_–si ______________________   zye  –   lo.         Bla–go –slo–vyen ________________________________________     ye– si      Gos     –         po –""_–си _____________________    зе   –   ло.        Бла–го–сло–вен ________________________________________      е – си     Гос      –         по –" (G6 A2 | %20
 G4 E2) F2 | D4 z!p! D D D | (G8- | G2 FG F2 ED | E3 F) G2 A2 | (G4 E2) F2 | %26
"_–ди.      Во   ис –по – ве    –    да – ни  –   е     и   в ве – ле  –  ле   –     по   –   ту    об   –   лекл    –         –         –         –     ся   е  –""_–di.        Vo   is – po – vye   –    da – ni   –   ye    i   v vye–lye –  lye   –     po   –   tu    ob   –    lyekl    –         –         –         –    sya  ye –" D4 z D D D | %27
 D4 D2 F2 | D2 D2 E2 F2 | (G4 A2) G2 |[M:3/4] G4 G2 |[M:4/4] (F2 G2- G2 A2 | G4 E2) D D | %33
"_–си.      Бла–го–сло–вен _________________________________________   е –  си     Гос      –         по   –   ди.   На  го– рах ______________""_–si.       Bla– go–slo –vyen ________________________________________    ye – si     Gos      –         po   –   di.    Na  go– rakh _____________" D4 z D D D | %34
 (G8- | G2 FG F2 ED | E3 F) G2 A2 | (G4 E2) F2 | D4 D2 D2 | (D6 F2 | %40
"______     ста    –         –         –     нут        во     –          –         –          –        ды.           Див      –      на   де  – ла _________________ Тво–я,""______     sta     –         –         –     nut         vo     –          –         –          –        dui.           Div        –     na   dye – la  ________________  Tvo–ya," D4) (E2 F2 | %41
[M:3/2] G4 A2 G2) G4 |[M:4/4] (F2 G2- G2 A2 | G4 E2 DC) | B,6 z2 || G8 | G2 FG (F2 ED | %47
 E3 F) G2 A2 | %48
"_Гос    –      по   –  ди.  По-сре-де ___________      гор       прой      –          –        дут           во    –         –         –         –         –   ды.""_Gos    –      po  –   di,   Po-srye-dye _________       gor        proi       –          –        dut            vo    –         –         –         –         –   dui." (G4 E2) F2 | %49
 D4 D2 D2 | (D6 F2) | D4 (E2 F2 |[M:3/2] G4 A2 G2) G4 |[M:4/4] (F2 G2- G2 A2 | G4 E2 DC) | %55
 B,6 z2 || %56
"_Div      –     na   dye – la  _________________ Tvo–ya,  Gos      –       po   –  di, Vsya prye-mu– dro– sti–yu        so– tvo  –   ril      ye –""_Див    –      на   де – ла _________________   Тво–я,   Гос      –       по   –  ди. Вся пре-му  – дро–сти–ю        со–тво  –  рил     е –" G8 | %57
 G2 FG (F2 ED | E3 F) G2 A2 | (G4 E2) F2 | D4 D2 D2 | D4 D2 F2 | D4 E2 F2 | (G4 A2) G2 | %64
"_–si,   so–tvo – ril  ________________________  ye  –    si.              Sla        –       va   Ti,    Gos     –         –         –         –         –         –       po  –""_–си, со–тво–рил _______________________   е   –    си.             Сла      –       ва   Ти,    Гос     –         –         –         –         –         –       по  –" G4 E2 E2 | %65
 (F2 G2- G2 A2 | G4 E2) F2 | D6 z2 || G8 | G2 FG (F2 ED | E3 F G2 A2 | G4 E2) F2 | %72
"_–ди,    со–тво –ри       –           вше –му,    со – тво   –  ри    –         –         –         –        –   вше–му      вся.                 Сла–ва  От –""_– di,     so–tvo – ri        –           vshe–mu,    so –  tvo   –   ri      –         –         –        –        –  vshe–mu    vsya.                 Sla – va  Ot –" D4 D2 D2 | %73
 G8 | G2 FG F2 ED | (E3 F G2 A2 | G4) E2 F2 | D8 ||[M:3/4] D2 D2 D2 | %79
[M:4/4]"_–цу _____________________        и _____        Сы       –       ну    и  Свя – то        –         –         му     Ду      –       ху.              Сла  –""_–tsu ____________________         i  _____        Sui       –       nu     i  Svya – to        –         –        mu     Du      –      khu.            Sla   –" (D6 F2 | %80
 D4) (E2 F2) | (G4 A2 G2) | G4 E2 E2 | (F2 G2- G2 A2 | G2) G2 (E2 DC) | B,6 z2 || G8 | %87
"_–ва    Ти,     Гос        –        –        –         –         –         –          –         по    –   ди,    со – тво – ри         –          вше – му,     со  –  тво –""_–va     Ti,     Gos        –        –        –         –         –         –          –          po   –    di,     so – tvo  –  ri          –         vshe – mu,    so  –  tvo  –" G2 FG (F2 ED | %88
 E3 F G2 A2 | G4 E2) F2 | D4 D2 D2 | G8 | G2 FG F2 ED | %93
"_–ри       –         –         –         –     вше–му     вся.              И   ны–не   и      при     –        –        –        –   сно,   и _____       при      –""_–ri         –         –         –         –    vshe–mu    vsya.             I    nui–nye  i       pri       –        –        –        –   sno,    i _____        pri        –" (E3 F G2 A2 | %94
 G4) E2 F2 | D6 z2 || D2 D2 D2 D2 | (D6 F2) | D4 (E2 F2) | (G4 A2 G2) | %100
"_–сно и  во  ве          –            ки  ве – ков.  А  –  минь.        Сла      –       ва   Ти,    Гос      –         –         –         –         –         –     по  –""_–sno  i   vo  vye        –            ki  vye – kov.  A  –   min'.         Sla        –       va   Ti,     Gos      –         –         –         –         –         –     po  –" G4 G2 G2 | %101
 (F2 G2- G2 A2) | G2 G2 E2 F2 | D6 z2 | G8 | G2 FG (F2 ED | E3 F G2 A2 | G4 E2) F2 | %108
"_–ди,   со– тво –ри         –            вше –му,     со – тво   –  ри     –        –         –         –         –     вше –му     вся.""_–di,     so –tvo – ri           –           vshe –mu,    so –  tvo   –   ri      –        –         –          –         –    vshe–mu    vsya." D4 D2 D2 | %109
 G8 | G2 GA F2 ED | (E3 F G2 A2 | G4) E2 DC | !fermata!B,8 |] %114
V:3
!p! B2 B2 d2 |[M:2/4] d2 e2 |[M:3/4] ed c2 B2 |[M:4/4] (f2 e2 d2 e2- | e2 d2 e2) dc | B4 z B B B | %6
[M:3/2] (e2 fe d4)!<(! e2 e2!<)! |[M:4/4] (e2!>(! d2 cB) Ae!>)! | d4 z!p! B B B | (A3 G A2 dc | %10
 B4) (B2 d2) |[M:3/2] (d4 e2) e2 e4 |[M:4/4] (f2 e2 d2 e2- | e2 d2 e2) dc |[M:2/4] B4 | %15
[M:3/4]!mf! cB A2 G2 | AB cd e2 |[M:4/4] e2 e2 ed c2 | (B2 c2 dc) B2 | (c4 d2 e2- | e2 d2 e2) dc | %21
 B4 z!p! B B B | (c3 d e4- | e2 fe d2 B2- | B3 d) d2 e2 | (e2 d2 e2) dc | B4 z B B B | %27
 (A3 G) A2 dc | B2 B2 B2 d2 | (d4 e2) e2 |[M:3/4] e4 e2 |[M:4/4] (f2 e2 d2 e2- | e2 d2 c2) B A | %33
 B4 z B B B | (c3 d e4- | e2 fe d2 B2 | B3 d) d2 e2 | (e2 d2 e2) dc | B4 B2 G2 | (A3 G A2 dc | %40
 B4) (B2 d2- |[M:3/2] d4 e4) e4 |[M:4/4] (f2 e2 d2 e2- | e2 d2 c2 BA) | d6 z2 || (c3 d e4) | %46
 e2 fe (d2 B2- | B3 d) d2 e2 | (e2 d2 e2) dc | B4 B2 B2 | (A3 G A2 d2) | B4 (B2 d2- | %52
[M:3/2] d4 e4) e4 |[M:4/4] (f2 e2 d2 e2- | e2 d2 c2 BA) | d6 z2 || (c3 d e4) | e2 fe (d2 B2- | %58
 B3 d) d2 e2 | (e2 d2 e2) dc | B4 B2 B2 | (A3 G) A2 d2 | B4 B2 d2 | (d4 e2) e2 | e4 B2 B2 | %65
 (f2 e2 d2 e2- | e2 d2 e2) dc | B6 z2 || (c3 d e4) | e2 fe (d2 B2- | B3 d- d2 e2- | e2 d2 e2) dc | %72
 B4 B2 B2 | (c3 d e4) | e2 fe d2 B2 | (B3 d- d2 e2- | e2 d2) e2 dc | B8 ||[M:3/4] B2 B2 B2 | %79
[M:4/4] (A3 G A2 d2 | B4) (B2 d2) | (d4 e4) | e4 B2 B2 | (f2 e2 d2 e2- | e2) d2 (c2 BA) | G6 z2 || %86
 (c3 d e4) | e2 fe (d2 B2- | B3 d- d2 e2- | e2 d2 e2) dc | B4 B2 B2 | (c3 d e4) | e2 fe d2 B2 | %93
 (B3 d- d2 e2- | e2 d2) e2 dc | B6 z2 || B2 B2 B2 B2 | (A3 G A2 d2) | B4 (B2 d2) | (d4 e4) | %100
 e4 e2 e2 | (f2 e2 d2 e2) | e2 d2 e2 dc | B6 z2 | (c3 d e4) | e2 fe (d2 B2- | B3 d- d2 e2- | %107
 e2 d2 e2) dc | B4 B2 B2 | (c3 d e4) | e2 fe d2 B2 | (B3 d- d2 e2- | e2 d2) c2 BA | !fermata!d8 |] %114
V:4
!p! G,2 G,2 D,2 |[M:2/4] G,2 E,2 |[M:3/4] A,,B,, C,D, E,2 |[M:4/4] (D,2 C,2 B,,2 A,,2 | %4
 E,2 B,,2 C,2) D,2 | G,4 z G, G, G, |[M:3/2] (E,2 D,C, B,,4)!<(! C,2 E,2!<)! | %7
[M:4/4] (A,,2!>(! B,,2 C,2) D,2!>)! | G,4 z!p! G, G, G, | (F,3 G, F,2 D,2 | G,3 F,) (E,2 D,C,) | %11
[M:3/2] (B,,4 A,,2) E,2 C,4 | %12
[M:4/4]"_Preliminary Psalm\nGreek chant\nAll-Night Vigil, Opus 50, No. 1\nP.  I. Tchaikovsky, 1885" (D,2 C,2 B,,2 A,,2 | %13
 E,2 B,,2 C,2) D,2 |[M:2/4] G,4 |[M:3/4]!mf! C,2 D,2 E,2 | D,2 A,,2 E,F, | %17
[M:4/4] G,2 A,2 E,2 A,,2 | (E,D, C,2 B,,A,,) G,,2 | (C,4 B,,2 A,,2 | E,2 B,,2 C,2) D,2 | %21
 G,4 z!p! G, G, G, | (E,3 G, C,4 | E,2 D,C, D,2 E,B,, | E,2 D,C,) B,,2 A,,2 | (E,2 B,,2 C,2) D,2 | %26
 G,4 z G, G, G, | (F,3 G,) F,2 D,2 | G,3 F, E,2 D,C, | (B,,4 A,,2) E,2 |[M:3/4] C,4 E,2 | %31
[M:4/4] (D,2 C,2 B,,2 A,,2 | E,2 B,,2 C,2) D, D, | G,4 z G, G, G, | (E,3 G, C,4 | %35
 E,2 D,C, D,2 E,B,, | E,2 D,C,) B,,2 A,,2 | (E,2 B,,2 C,2) D,2 | G,4 G,2 G,2 | (F,3 G, F,2 D,2 | %40
 G,3 F,) (E,2 D,C, |[M:3/2] B,,4 A,,2 E,2) C,4 |[M:4/4] (D,2 C,2 B,,2 A,,2 | E,2 B,,2 C,2 D,2) | %44
 G,6 z2 || (E,3 G, C,4) | E,2 D,C, (D,2 E,B,, | E,2 D,C,) B,,2 A,,2 | (E,2 B,,2 C,2) D,2 | %49
 G,4 G,2 G,2 | (F,3 G, F,2 D,2) | (G,3 F,) (E,2 D,C, |[M:3/2] B,,4 A,,2 E,2) C,4 | %53
[M:4/4] (D,2 C,2 B,,2 A,,2 | E,2 B,,2 C,2 D,2) | G,6 z2 || (E,3 G, C,4) | E,2 D,C, (D,2 E,B,, | %58
 E,2 D,C,) B,,2 A,,2 | (E,2 B,,2 C,2) D,2 | G,4 G,2 G,2 | (F,3 G,) F,2 D,2 | (G,3 F,) E,2 D,C, | %63
 (B,,4 A,,2) E,2 | C,4 E,2 E,2 | (D,2 C,2 B,,2 A,,2 | E,2 B,,2 C,2) D,2 | G,6 z2 || (E,3 G, C,4) | %69
 E,2 D,C, (D,2 E,B,, | E,2 D,C, B,,2 A,,2 | E,2 B,,2 C,2) D,2 | G,4 G,2 G,2 | (E,3 G, C,4) | %74
 E,2 D,C, D,2 E,B,, | (E,2 D,C, B,,2 A,,2 | E,2 B,,2) C,2 D,2 | G,8 ||[M:3/4] G,2 G,2 G,2 | %79
[M:4/4] (F,3 G, F,2 D,2 | G,3 F,) (E,2 D,C,) | (B,,4 A,,2 E,2) | C,4 E,2 E,2 | (D,2 C,2 B,,2 A,,2 | %84
 E,2) B,,2 (C,2 D,2) | G,6 z2 || (E,3 G, C,4) | E,2 D,C, (D,2 E,B,, | E,2 D,C, B,,2 A,,2 | %89
 E,2 B,,2 C,2) D,2 | G,4 G,2 G,2 | (E,3 G, C,4) | E,2 D,C, D,2 E,B,, | (E,2 D,C, B,,2 A,,2 | %94
 E,2 B,,2) C,2 D,2 | G,6 z2 || G,2 G,2 G,2 G,2 | (F,3 G, F,2 D,2) | G,4 (E,2 D,C,) | %99
 (B,,4 A,,2 E,2) | C,4 E,2 E,2 | (D,2 C,2 B,,2 A,,2) | E,2 B,,2 C,2 D,2 | G,6 z2 | (E,3 G, C,4) | %105
 E,2 D,C, (D,2 E,B,, | E,2 D,C, B,,2 A,,2 | E,2 B,,2 C,2) D,2 | G,4 G,2 G,2 | (E,3 G, C,4) | %110
 E,2 D,C, D,2 E,B,, | (E,2 D,C, B,,2 A,,2 | E,2 B,,2) C,2 D,2 | !fermata!G,8 |] %114

